packages/foundations/assets/icons/functional/images/arrows/chevron_up_32.svg

<svg width="32" height="32" viewBox="0 0 32 32" fill="none" xmlns="http://www.w3.org/2000/svg">
<g clip-path="url(#clip0_77_513)">
<path fill-rule="evenodd" clip-rule="evenodd" d="M23.9995 21C24.5615 21 24.9995 20.593 24.9995 20C24.9995 19.75 24.9055 19.5 24.7185 19.281L16.7185 11.281C16.5206 11.1036 16.2652 11.0038 15.9995 11C15.7495 11 15.4995 11.094 15.2805 11.281L7.28049 19.281C7.10348 19.479 7.00404 19.7344 7.00049 20C7.00049 20.25 7.09349 20.5 7.28049 20.718C7.47845 20.896 7.73427 20.9962 8.00049 21C8.25049 21 8.50049 20.906 8.71849 20.718L15.9995 13.406L23.2805 20.718C23.4782 20.8958 23.7336 20.996 23.9995 21Z" fill="#1A1C1F"/>
</g>
<defs>
<clipPath id="clip0_77_513">
<rect width="32" height="32" fill="white"/>
</clipPath>
</defs>
</svg>

<svg xmlns="http://www.w3.org/2000/svg" width="32" height="32" fill="none"><g clip-path="url(#a)"><path fill="#1A1C1F" fill-rule="evenodd" d="M24 21c.561 0 1-.407 1-1 0-.25-.095-.5-.282-.719l-8-8A1.1 1.1 0 0 0 16 11c-.25 0-.5.094-.719.281l-8 8A1.1 1.1 0 0 0 7 20c0 .25.093.5.28.718A1.1 1.1 0 0 0 8 21c.25 0 .5-.094.718-.282L16 13.406l7.281 7.312A1.1 1.1 0 0 0 24 21" clip-rule="evenodd"/></g><defs><clipPath id="a"><path fill="#fff" d="M0 0h32v32H0z"/></clipPath></defs></svg>
